X:213
T:B213-  I live not where I love
S:(2nd/3)
Q:1/4=120
L:1/4
M:3/2
K:D dorian
BcA|G2ABcA|B2cdef|d2B2cA|G3:|]
dde/2^f/2|g2BBcd|e3de^f|g3a/2g/2 ^f/2e/2 f/2e/2|d3|]

